X: 1
T: FIRST FLIRTATION -- FLING
B: Ryan's Mammoth Collection of Fiddle Tunes
R: fling
M: 2/4
L: 1/16
Z: Contributed 20080603 by John Chambers jc:jc.tzo.net
K: A
((3vefg \
| a4) (uc3.f) | (e3.c)"SEGUE"A3c | d3cB3A | G3f e2(vfg \
| a4) c3f | e3cA3c | d3ef3g | (3a2a2a2 a2 :|
u"3"b2 \
|: v"3"c'3"1"a"2"e3"3"c' | "2"b3"4"g"2"e3"2"b | c'3ae3c' | "2"b3"4"g"2"e3"2"g \
| a3gf3e | f3ed3c |[1 d3eg3f | e3ga3b :|[2 d3ef3g | (3a2a2a2 a2 |]
